X: 1
T: The Salamanca
R: reel
M: 4/4
L: 1/8
K: Dmaj
|:dB|ADFD ADFD|Adcd fdcd|BEGE BEGE|Bded cdeg|fBAB fBAB|fafc deag|fdec dBAG|FGEF D2:||:fg|afdg bgeg|fdec dcBc|ABcd defg|a2^gb a2f=g|afff geee|fdec dfag|fdec dBAG|FGEF D2:|


Tune 99	Setting 12660

